!! 00000] TT[WS
!!!OTL: Daji ge
!!!ARE: Asia, China, Shanxi Wutai
!! Ethnic Group: Han
!! Wang Sen
!!!SCT: J0452
!!!YEM: Copyright 1995, estate of Helmut Schaffrath.
**kern
*ICvox
*Ivox
*M2/4
*k[b-e-]
*B-:
{8.cc
16dd
8cc
16b-
16g
=1
4f
4f
=2
8.b-
16cc
8b-
16a
16g
=3
4f
4f}
=4
{8cc
8dd
8cc
16dd
16dd
=5
8b-
16a
16g
4f
=6
8b-
16cc
16cc
8b-
16a
16g
=7
4f
4f}
=8
{4dd
8dd
8g
=9
4f
4f
=10
8.f
16g
8b-
16a
16g
=11
4f
4f}
=12
{8cc
16dd
16dd
8dd
16cc
16dd
=13
8b-
16a
16g
4f
=14
8b-
16a
16g
8cc
8r
=15
8.f
16g
8b-
16a
16g
=16
4f
4ff}
=17
{4dd
8dd
8g
=18
4f
4f
=19
8.f
16g
8b-
16a
16g
=20
4f
4f}
==
!!!AGN: Haozi. Laodong, Dawo
!!!ONB: ESAC (Essen Associative Code) Database: CHINA
!!!AMT: simple duple
!!!AIN: vox
!!!EED: Helmut Schaffrath
!!!EEV: 1.0
*-
